src/16/panel/security-low.svg

<svg xmlns="http://www.w3.org/2000/svg" width="16" height="16"><defs><style id="current-color-scheme" type="text/css"></style></defs><path d="M2 1v7.525C2 12.857 8 15 8 15s6-2.143 6-6.475V1H2zm2 2h4v4h4v2c0 3.008-4 4-4 4V7H4V3z" fill="currentColor" color="#5294e2"/></svg>

<svg xmlns="http://www.w3.org/2000/svg" width="16" height="16" version="1.1">
 <defs>
  <style id="current-color-scheme" type="text/css">
   .ColorScheme-Text { color:#bebebe; } .ColorScheme-Highlight { color:#5294e2; }
  </style>
 </defs>
 <path style="fill:currentColor" class="ColorScheme-Highlight" d="M 2 1 L 2 8.5253906 C 2 12.856641 8 15 8 15 C 8 15 14 12.856641 14 8.5253906 L 14 1 L 2 1 z M 4 3 L 8 3 L 8 7 L 12 7 L 12 9 C 12 12.008333 8 13 8 13 L 8 7 L 4 7 L 4 3 z"/>
</svg>
